X:940
T:Runas hambo
C:Frank Nordberg
O:Norway
A:Finnmark
N:This tune can be freely distributed on the web as long as it's not altered.
R:Hambo (more or less)
Z:Transcribed by Frank Nordberg - http://www.musicaviva.com
%http://www.musicaviva.com/runas-hambo
%Posted 25 May 1999 at ABC-users by Frank Nordberg and used as a transcription example.
M:3/4
L:1/8
Q:240
K:Gmin
D>^F|"Gm"G2B>c "D7"A>B|"Gm"G2G2B>c|"Gm"d2d>d "C"c>=e|"Gm"d2z2d>d|
"Cm"g2g>g "F"f>a|"Bb"d2d2"Cm"e>e|"D7"d2d>c A>c|"D7"d2z2"Gm"(3g^fg|
"Bb"d2z2(3f=ef|"F"c2z2"D7"d>e|"Gm"d2"Cm"G>G "D7"A>B|"Gm"G2z2(3g^fg|
"Bb"d2z2(3f=ef|"F"c2z2"D7"d>e|"Gm"d2 "Cm"G>B "D7"(3AGA|"Gm"G2z2:||
K:G
|:D>F|"G"G2B2A2|"G"GAB2c2|"D7"d2d>e (3cdc|"G"B2z2G>A|
"Em"B2B>c "Am"A>c|"Em"B2E2F2|"C"G2G2A2|"B7"B2z2B2|
"Em"g3fe2|"B7"f^dB2B2|"C"e2g2e2|"G"d2z2G>A|
"G"B2d2"D7"c2|"G"Bdg2fe|"D7"d3B (3cBA|"G"G2z2:||
K:Gmin
D>^F|"Gm"G2B>c "D7"A>B|"Gm"G2G2B>c|"Gm"d2d>d "C"c>=e|"Gm"d2z2d>d|
"Cm"g2g>g "F"f>a|"Bb"d2d2"Cm"e>e|"D7"d2d>c A>c|"D7"d2z2"Gm"(3g^fg|
"Bb"d2z2(3f=ef|"F"c2z2"D7"d>e|"Gm"d2"Cm"G>G "D7"A>B|"Gm"G2z2(3g^fg|
"Bb"d2z2(3f=ef|"F"c2z2"D7"d>e|"Gm"d2 "Cm"G>B "D7"(3AGA|"Gm"G2z2||
K:C
G,2|"C"C4E2|"C/E"G4C2|"F"A2A>c B>A|"C"G3zE>G|
"G7"F2F>ED2|"C"E2E>DC2|"D7"D>^C D>E ^F>A|"G7"G3zG,2|
"C"C4E2|"C/E"G4C2|"F"F2 F>G A>B|"C/E"c2z2cB|
"F"A2c2A2|"C"Gce2e2|"G7"d3g fd|"C"c2z2||
K:Gmin
D>^F|"Gm"G2B>c "D7"A>B|"Gm"G2G2B>c|"Gm"d2d>d "C"c>=e|"Gm"d2z2d>d|
"Cm"g2g>g "F"f>a|"Bb"d2d2"Cm"e>e|"D7"d2d>c A>c|"D7"d2z2"Gm"(3g^fg|
"Bb"d2z2(3f=ef|"F"c2z2"D7"d>e|"Gm"d2"Cm"G>G "D7"A>B|"Gm"G2z2(3g^fg|
"Bb"d2z2(3f=ef|"F"c2z2"D7"d>e|"Gm"d2 "Cm"g>b "D7"(3aba|"Gm"g2z2|]
W:
W:
W:  From Musica Viva - http://www.musicaviva.com
W:  the Internet center for free sheet music downloads.

